components/Company/logos/logo-datastax.svg

<svg height="140" viewBox="0 0 400 140" width="400" xmlns="http://www.w3.org/2000/svg"><g fill="none" transform="translate(25 20)"><path d="m349.33067 43.8600515c0 3.8249227-3.059794 7.14-6.884536 7.14s-7.140722-3.0601546-7.140722-6.8850773 3.059794-7.14 6.884536-7.14c3.826547 0 7.140722 3.0599743 7.140722 6.8850773zm-36.210567-40.54504635c-3.824742 0-7.138917 3.31498712-6.884536 7.13998195 0 3.8249949 3.315979 6.8850052 7.140722 6.8850052 3.824742 0 6.884536-3.3150052 6.884536-7.14 0-3.82499488-3.059794-6.88498715-7.140722-6.88498715zm-18.614948-3.31500515c-3.059794 0-5.35464 2.55000258-5.35464 5.60999485 0 3.05999226 2.551031 5.35499995 5.610825 5.35499995s5.354639-2.55000253 5.354639-5.6099948c0-3.06001031-2.551031-5.355-5.610824-5.355zm45.389948 24.7348969c0-4.8449742-4.079124-8.6699149-8.925-8.6699149-4.844072 0-8.668814 4.0800438-8.668814 8.925018s4.079123 8.6698969 8.925 8.6698969c4.844072-.2549227 8.925-4.0798454 8.668814-8.925zm0 32.3851031c-2.803608 0-4.844072 2.2950258-4.844072 5.0998969 0 2.8050516 2.294845 4.8449742 5.100258 4.8449742 2.803608 0 5.100257-2.2948453 4.844072-5.0998969 0-2.8050515-2.294846-4.8449742-5.100258-4.8449742zm-13.004124 9.1799227c-1.529897 0-2.805412 1.2749742-2.805412 3.0599742 0 1.5300773 1.275515 2.8050516 3.059794 2.8050516 1.529897 0 2.805412-1.2749743 2.805412-3.0599743s-1.529897-3.0599742-3.059794-2.8050515zm-44.114433-55.8449356c-1.786082 0-3.315979 1.5300052-3.061598 3.3150052.256186 1.785 1.531701 3.0599922 3.31598 3.0599922 1.784278 0 3.314175-1.5299871 3.059794-3.3149871-.254382-1.785-1.529897-3.0600103-3.314176-3.0600103zm-1.021134 13.5149614c-1.529897 0-2.549226 1.2749742-2.549226 2.5499484 0 1.2751546 1.273711 2.5501289 2.549226 2.5501289 1.275516 0 2.551031-1.2749743 2.551031-2.5501289 0-1.5298969-1.021134-2.5499484-2.551031-2.5499484z" fill="#055992"/><g fill="#1f2438" transform="translate(0 36.082474)"><path d="m307.785309 15.1723196 10.198712-10.19997424c.764948-.76494845.764948-1.785.510567-2.80505155-.510567-1.02005154-1.275516-1.5298969-2.549227-1.5298969-.764949 0-1.275516.25492268-1.786083.76494845l-10.200515 10.19997424-10.454897-10.45507733c-.508763-.50984536-1.273711-.76494846-1.784278-.76494846-1.01933 0-2.040464.76494846-2.549227 1.53007732-.510567 1.01987114-.256186 2.03992268.508763 2.80487114l10.454897 10.45507733-10.198712 10.1999742c-.764948.7649485-1.021134 1.785-.510567 2.8050516.510567 1.0198711 1.275516 1.5298969 2.549227 1.5298969.764949 0 1.275516-.2549227 1.786083-.7649485l10.198711-10.1999742 10.200515 9.4350258c.510567.5100257 1.275516.7649484 1.786083.7649484 1.01933 0 2.03866-.5100258 2.549227-1.5300773.510567-1.0198711.254381-2.0399227-.510567-2.8048711z"/><path d="m22.1849485.38229381h-19.12495623c-1.785 0-3.05999227 1.53007732-3.05999227 3.31507732v23.20499997c0 1.5298969 1.27499227 3.0599743 3.05999227 3.0599743h19.12495623c3.825103 0 7.395103-3.57 7.395103-7.14v-15.04494849c0-3.8251031-3.57-7.3951031-7.395103-7.3951031zm2.040103 22.18494849c0 1.0200515-1.0200515 2.0401031-2.040103 2.0401031-3.314897 0-6.3748712 0-9.6899485 0h-.5100077c-2.29498972 0-4.33500261 0-6.6299923 0v-18.87005159h17.0850515c1.0198712 0 2.0399227 1.02005155 2.0399227 2.0401031v14.78984539z"/><path d="m65.534433.38229381h-14.28c-4.3349485 0-7.6500258 3.31507732-7.6500258 7.3951031v19.63481959c0 1.5300773 1.2749742 2.5501289 2.5499485 2.5501289 1.5300773 0 2.5501288-1.2749743 2.5501288-2.5501289v-8.925h19.1249743v8.925c0 1.5300773 1.2749742 2.5501289 2.5499484 2.5501289 1.5300773 0 2.5499485-1.2749743 2.5499485-2.5501289v-19.63481959c.5100257-4.59005155-3.57-7.3951031-7.3949227-7.3951031zm2.5499484 13.00502579h-19.1249742v-5.60992269c0-1.27515464 1.2749742-2.0401031 2.5499485-2.0401031h14.28c1.2749742 0 2.5501288.76494846 2.5501288 2.0401031v5.60992269z"/><path d="m107.86549.38229381h-20.6548714c-1.5300774 0-2.5501289 1.27497423-2.5501289 2.54994846 0 1.53007732 1.2751546 2.55012886 2.5501289 2.55012886h7.6500257v21.92984537c0 1.5300773 1.2749743 2.5501289 2.5499485 2.5501289 1.5298969 0 2.5499484-1.2749743 2.5499484-2.5501289v-21.67492269h7.6500258c1.530077 0 2.549948-1.27497422 2.549948-2.54994845.510026-1.53007732-.764948-2.80505155-2.295025-2.80505155z"/><path d="m144.839562.38229381h-14.28c-4.334949 0-7.650026 3.31507732-7.650026 7.3951031v19.63481959c0 1.5300773 1.020052 2.5501289 2.550129 2.5501289 1.529897 0 2.549948-1.2749743 2.549948-2.5501289v-8.925h19.124975v8.925c0 1.5300773 1.274974 2.5501289 2.549948 2.5501289 1.530077 0 2.550129-1.2749743 2.550129-2.5501289v-19.63481959c.254923-4.59005155-3.57-7.3951031-7.395103-7.3951031zm2.549948 13.00502579h-19.124974v-5.60992269c0-1.27515464 1.275155-2.0401031 2.550129-2.0401031h14.28c1.274974 0 2.549948.76494846 2.549948 2.0401031v5.60992269z"/><path d="m189.46366 12.6223711h-15.809717c-1.529897 0-2.039922-2.0401031-2.039922-3.56999997 0-1.27497422.510025-3.31507732 2.039922-3.31507732h17.339614c1.529897 0 2.551031-1.27497422 2.551031-2.54994845 0-1.53007732-1.275516-2.54994845-2.551031-2.54994845h-17.339614c-4.844974 0-7.139819 4.33494845-7.139819 8.6698969 0 4.33512889 2.294845 8.67007729 7.394922 8.67007729h15.554614c1.529897 0 2.040464 2.0399227 2.040464 3.57 0 1.2749743-.510567 3.3148969-2.040464 3.3148969h-19.889562c-1.530077 0-2.550129 1.0200516-2.550129 2.5501289 0 1.5298969 1.275155 2.5499485 2.550129 2.5499485h19.889562c5.100258 0 7.140721-4.5900516 7.140721-8.6700774 0-4.3349484-2.55103-8.6698969-7.140721-8.6698969z"/><path d="m231.03067.38229381h-22.441495c-1.529897 0-2.549227 1.27497423-2.549227 2.54994846 0 1.53007732 1.275516 2.55012886 2.549227 2.55012886h9.435567v9.68994847 11.9849742c0 1.5300773 1.275516 2.5499485 2.551031 2.5499485 1.529897 0 2.549227-1.2749743 2.549227-2.5499485v-21.67492267h7.649485c1.529896 0 2.55103-1.27497422 2.55103-2.55012886.508763-1.27497423-.764948-2.54994846-2.294845-2.54994846z"/><path d="m268.004381.38229381h-14.279639c-4.335309 0-7.651288 3.31507732-7.651288 7.3951031v19.63481959c0 1.5300773 1.275515 2.5501289 2.551031 2.5501289 1.529896 0 2.549226-1.2749743 2.549226-2.5501289v-8.925h19.125516v8.925c0 1.5300773 1.275515 2.5501289 2.549227 2.5501289 1.531701 0 2.551031-1.2749743 2.551031-2.5501289v-19.63481959c.254381-4.59005155-3.824743-7.3951031-7.395104-7.3951031zm2.294846 13.00502579h-19.125516v-5.60992269c0-1.27515464 1.275516-2.0401031 2.551031-2.0401031h14.279639c1.275516 0 2.549227.76494846 2.549227 2.0401031v5.60992269z"/></g></g></svg>

<?xml version="1.0" encoding="UTF-8"?>
<svg width="400px" height="140px" viewBox="0 0 400 140" version="1.1" xmlns="http://www.w3.org/2000/svg" xmlns:xlink="http://www.w3.org/1999/xlink">
    <title>Artboard</title>
    <g id="Artboard" stroke="none" stroke-width="1" fill="none" fill-rule="evenodd">
        <g id="DataStax" transform="translate(25.000000, 20.000000)" fill-rule="nonzero">
            <path d="M349.33067,43.8600515 C349.33067,47.6849742 346.270876,51.0000515 342.446134,51.0000515 C338.621392,51.0000515 335.305412,47.9398969 335.305412,44.1149742 C335.305412,40.2900515 338.365206,36.9749742 342.189948,36.9749742 C346.016495,36.9749742 349.33067,40.0349485 349.33067,43.8600515 Z M313.120103,3.31500515 C309.295361,3.31500515 305.981186,6.62999227 306.235567,10.4549871 C306.235567,14.279982 309.551546,17.3399923 313.376289,17.3399923 C317.201031,17.3399923 320.260825,14.0249871 320.260825,10.1999923 C320.260825,6.37499742 317.201031,3.31500515 313.120103,3.31500515 Z M294.505155,0 C291.445361,0 289.150515,2.55000258 289.150515,5.60999485 C289.150515,8.66998711 291.701546,10.9649948 294.76134,10.9649948 C297.821134,10.9649948 300.115979,8.41499227 300.115979,5.355 C300.115979,2.29498969 297.564948,0 294.505155,0 Z M339.895103,24.7348969 C339.895103,19.8899227 335.815979,16.064982 330.970103,16.064982 C326.126031,16.064982 322.301289,20.1450258 322.301289,24.99 C322.301289,29.8349742 326.380412,33.6598969 331.226289,33.6598969 C336.070361,33.4049742 340.151289,29.5800515 339.895103,24.7348969 L339.895103,24.7348969 Z M339.895103,57.12 C337.091495,57.12 335.051031,59.4150258 335.051031,62.2198969 C335.051031,65.0249485 337.345876,67.0648711 340.151289,67.0648711 C342.954897,67.0648711 345.251546,64.7700258 344.995361,61.9649742 C344.995361,59.1599227 342.700515,57.12 339.895103,57.12 L339.895103,57.12 Z M326.890979,66.2999227 C325.361082,66.2999227 324.085567,67.5748969 324.085567,69.3598969 C324.085567,70.8899742 325.361082,72.1649485 327.145361,72.1649485 C328.675258,72.1649485 329.950773,70.8899742 329.950773,69.1049742 C329.950773,67.3199742 328.420876,66.045 326.890979,66.2999227 Z M282.776546,10.4549871 C280.990464,10.4549871 279.460567,11.9849923 279.714948,13.7699923 C279.971134,15.5549923 281.246649,16.8299845 283.030928,16.8299845 C284.815206,16.8299845 286.345103,15.2999974 286.090722,13.5149974 C285.83634,11.7299974 284.560825,10.4549871 282.776546,10.4549871 Z M281.755412,23.9699485 C280.225515,23.9699485 279.206186,25.2449227 279.206186,26.5198969 C279.206186,27.7950515 280.479897,29.0700258 281.755412,29.0700258 C283.030928,29.0700258 284.306443,27.7950515 284.306443,26.5198969 C284.306443,24.99 283.285309,23.9699485 281.755412,23.9699485 Z" id="Shape" fill="#055992"></path>
            <g id="Group" transform="translate(0.000000, 36.082474)" fill="#1F2438">
                <path d="M307.785309,15.1723196 L317.984021,4.97234536 C318.748969,4.20739691 318.748969,3.18734536 318.494588,2.16729381 C317.984021,1.14724227 317.219072,0.637396907 315.945361,0.637396907 C315.180412,0.637396907 314.669845,0.892319588 314.159278,1.40234536 L303.958763,11.6023196 L293.503866,1.14724227 C292.995103,0.637396907 292.230155,0.382293814 291.719588,0.382293814 C290.700258,0.382293814 289.679124,1.14724227 289.170361,1.91237113 C288.659794,2.93224227 288.914175,3.95229381 289.679124,4.71724227 L300.134021,15.1723196 L289.935309,25.3722938 C289.170361,26.1372423 288.914175,27.1572938 289.424742,28.1773454 C289.935309,29.1972165 290.700258,29.7072423 291.973969,29.7072423 C292.738918,29.7072423 293.249485,29.4523196 293.760052,28.9422938 L303.958763,18.7423196 L314.159278,28.1773454 C314.669845,28.6873711 315.434794,28.9422938 315.945361,28.9422938 C316.964691,28.9422938 317.984021,28.432268 318.494588,27.4122165 C319.005155,26.3923454 318.748969,25.3722938 317.984021,24.6073454 L307.785309,15.1723196 Z" id="Path"></path>
                <path d="M22.1849485,0.382293814 L3.05999227,0.382293814 C1.27499227,0.382293814 -1.60238375e-15,1.91237113 -1.60238375e-15,3.69737113 L-1.60238375e-15,26.9023711 C-1.60238375e-15,28.432268 1.27499227,29.9623454 3.05999227,29.9623454 L22.1849485,29.9623454 C26.0100515,29.9623454 29.5800515,26.3923454 29.5800515,22.8223454 L29.5800515,7.77739691 C29.5800515,3.95229381 26.0100515,0.382293814 22.1849485,0.382293814 Z M24.2250515,22.5672423 C24.2250515,23.5872938 23.205,24.6073454 22.1849485,24.6073454 C18.8700515,24.6073454 15.8100773,24.6073454 12.495,24.6073454 L11.9849923,24.6073454 C9.69000258,24.6073454 7.64998969,24.6073454 5.355,24.6073454 L5.355,5.73729381 L22.4400515,5.73729381 C23.4599227,5.73729381 24.4799742,6.75734536 24.4799742,7.77739691 L24.4799742,22.5672423 L24.2250515,22.5672423 Z" id="Shape"></path>
                <path d="M65.534433,0.382293814 L51.254433,0.382293814 C46.9194845,0.382293814 43.6044072,3.69737113 43.6044072,7.77739691 L43.6044072,27.4122165 C43.6044072,28.9422938 44.8793814,29.9623454 46.1543557,29.9623454 C47.684433,29.9623454 48.7044845,28.6873711 48.7044845,27.4122165 L48.7044845,18.4872165 L67.8294588,18.4872165 L67.8294588,27.4122165 C67.8294588,28.9422938 69.104433,29.9623454 70.3794072,29.9623454 C71.9094845,29.9623454 72.9293557,28.6873711 72.9293557,27.4122165 L72.9293557,7.77739691 C73.4393814,3.18734536 69.3593557,0.382293814 65.534433,0.382293814 L65.534433,0.382293814 Z M68.0843814,13.3873196 L48.9594072,13.3873196 L48.9594072,7.77739691 C48.9594072,6.50224227 50.2343814,5.73729381 51.5093557,5.73729381 L65.7893557,5.73729381 C67.0643299,5.73729381 68.3394845,6.50224227 68.3394845,7.77739691 L68.3394845,13.3873196 L68.0843814,13.3873196 Z" id="Shape"></path>
                <path d="M107.86549,0.382293814 L87.2106186,0.382293814 C85.6805412,0.382293814 84.6604897,1.65726804 84.6604897,2.93224227 C84.6604897,4.46231959 85.9356443,5.48237113 87.2106186,5.48237113 L94.8606443,5.48237113 L94.8606443,27.4122165 C94.8606443,28.9422938 96.1356186,29.9623454 97.4105928,29.9623454 C98.9404897,29.9623454 99.9605412,28.6873711 99.9605412,27.4122165 L99.9605412,5.73729381 L107.610567,5.73729381 C109.140644,5.73729381 110.160515,4.46231959 110.160515,3.18734536 C110.670541,1.65726804 109.395567,0.382293814 107.86549,0.382293814 Z" id="Path"></path>
                <path d="M144.839562,0.382293814 L130.559562,0.382293814 C126.224613,0.382293814 122.909536,3.69737113 122.909536,7.77739691 L122.909536,27.4122165 C122.909536,28.9422938 123.929588,29.9623454 125.459665,29.9623454 C126.989562,29.9623454 128.009613,28.6873711 128.009613,27.4122165 L128.009613,18.4872165 L147.134588,18.4872165 L147.134588,27.4122165 C147.134588,28.9422938 148.409562,29.9623454 149.684536,29.9623454 C151.214613,29.9623454 152.234665,28.6873711 152.234665,27.4122165 L152.234665,7.77739691 C152.489588,3.18734536 148.664665,0.382293814 144.839562,0.382293814 L144.839562,0.382293814 Z M147.38951,13.3873196 L128.264536,13.3873196 L128.264536,7.77739691 C128.264536,6.50224227 129.539691,5.73729381 130.814665,5.73729381 L145.094665,5.73729381 C146.369639,5.73729381 147.644613,6.50224227 147.644613,7.77739691 L147.644613,13.3873196 L147.38951,13.3873196 Z" id="Shape"></path>
                <path d="M189.46366,12.6223711 L173.653943,12.6223711 C172.124046,12.6223711 171.614021,10.582268 171.614021,9.05237113 C171.614021,7.77739691 172.124046,5.73729381 173.653943,5.73729381 L190.993557,5.73729381 C192.523454,5.73729381 193.544588,4.46231959 193.544588,3.18734536 C193.544588,1.65726804 192.269072,0.637396907 190.993557,0.637396907 L173.653943,0.637396907 C168.808969,0.637396907 166.514124,4.97234536 166.514124,9.30729381 C166.514124,13.6424227 168.808969,17.9773711 173.909046,17.9773711 L189.46366,17.9773711 C190.993557,17.9773711 191.504124,20.0172938 191.504124,21.5473711 C191.504124,22.8223454 190.993557,24.862268 189.46366,24.862268 L169.574098,24.862268 C168.044021,24.862268 167.023969,25.8823196 167.023969,27.4123969 C167.023969,28.9422938 168.299124,29.9623454 169.574098,29.9623454 L189.46366,29.9623454 C194.563918,29.9623454 196.604381,25.3722938 196.604381,21.292268 C196.604381,16.9573196 194.053351,12.6223711 189.46366,12.6223711 L189.46366,12.6223711 Z" id="Path"></path>
                <path d="M231.03067,0.382293814 L208.589175,0.382293814 C207.059278,0.382293814 206.039948,1.65726804 206.039948,2.93224227 C206.039948,4.46231959 207.315464,5.48237113 208.589175,5.48237113 L218.024742,5.48237113 L218.024742,15.1723196 L218.024742,27.1572938 C218.024742,28.6873711 219.300258,29.7072423 220.575773,29.7072423 C222.10567,29.7072423 223.125,28.432268 223.125,27.1572938 L223.125,5.48237113 L230.774485,5.48237113 C232.304381,5.48237113 233.325515,4.20739691 233.325515,2.93224227 C233.834278,1.65726804 232.560567,0.382293814 231.03067,0.382293814 Z" id="Path"></path>
                <path d="M268.004381,0.382293814 L253.724742,0.382293814 C249.389433,0.382293814 246.073454,3.69737113 246.073454,7.77739691 L246.073454,27.4122165 C246.073454,28.9422938 247.348969,29.9623454 248.624485,29.9623454 C250.154381,29.9623454 251.173711,28.6873711 251.173711,27.4122165 L251.173711,18.4872165 L270.299227,18.4872165 L270.299227,27.4122165 C270.299227,28.9422938 271.574742,29.9623454 272.848454,29.9623454 C274.380155,29.9623454 275.399485,28.6873711 275.399485,27.4122165 L275.399485,7.77739691 C275.653866,3.18734536 271.574742,0.382293814 268.004381,0.382293814 Z M270.299227,13.3873196 L251.173711,13.3873196 L251.173711,7.77739691 C251.173711,6.50224227 252.449227,5.73729381 253.724742,5.73729381 L268.004381,5.73729381 C269.279897,5.73729381 270.553608,6.50224227 270.553608,7.77739691 L270.553608,13.3873196 L270.299227,13.3873196 Z" id="Shape"></path>
            </g>
        </g>
    </g>
</svg>
